X:1
T:Here We Come A-Wassailing
M:4/4
L:1/4
K:C
 C D/2 E D/2 C| D/2 E D/2 C G/2 G| G/2 G3 A| A/2 G E/2 G G/2 F| E/2 D- C/2 D E/2
M:4/4
| F2 E F| G2 c A| G2 E F| G G c A| G2 E F| G2 A E| F- D C B,| C3/2- D/2 E C|\
 F2 E F| G- E A G| F- D C B,| C4-| C z3|||

